X:1
T:Te Lucis, LM
T:Te Lucis, LM
T:Proper Sarum Melody
T:Public Domain Courtesy of the Cyber Hymnal™
C:Proper Sarum Melody
Z:Public Domain
Z:Courtesy of the Cyber Hymnal™
%%score ( 1 2 ) ( 3 4 )
L:1/8
Q:1/4=113
M:4/4
K:F
V:1 treble 
V:2 treble 
V:3 bass 
V:4 bass 
V:1
 [EG]2 | [DB]2 [DB]2 [GB]2 [GB]2 | [Cc]3 [GB] [FA]2 [EG]2 | [DG]2 [DG]2 [CG]2 [CA]2 | %4
 [DA]3 [EG] F2 [FA]2 | [FA]2 [EG]2 [DF]2 D2 | [DF]2 [DG]2 [EG]2 [FB]2 | [DB]2 [EB]2 [FB]2 [FG]2 | %8
 [FA]3 [EG] F2 |] %9
V:2
 x2 | x8 | x8 | x8 | x4 F2 x2 | x6 D2 | x8 | x8 | x4 F2 |] %9
V:3
 [C,C]2 | [G,B,]2 [G,B,]2 [G,D]2 [F,D]2 | [E,G,]3 [E,C] [F,C]2 [C,C]2 | %3
 [G,B,]2 B,2 [E,G,]2 [A,,F,]2 | [B,,F,]3 [C,B,] [F,A,]2 [F,C]2 | [F,C]2 [C,C]2 [D,A,]2 [G,B,]2 | %6
 [D,A,]2 [G,,=B,]2 [C,C]2 [=B,,D]2 | [B,,B,]2 [C,G,]2 [D,F,]2 [B,,D]2 | [C,C]3 [C,B,] [F,A,]2 |] %9
V:4
 x2 | x8 | x8 | x2 (G,F,) x4 | x8 | x8 | x8 | x8 | x6 |] %9

